X: 33
T: Hammy Hamilton's
T: The Woodcock
C:Hammy Hamilton
M:6/8
L:1/8
R:jig
K:G
B|"G"dBG "C"cGE|"G"DED GFG|BAB dcB|dcB "D7"ABc|!
"G"dBG "C"cGE|"G"DED GFG|BAB dcB|"D"AGF "G"G2:|!
B|"G"dBG "Am"ecA|"D"fef "G"gfg|"C"ege "G"dBG|dcB "D7"ABc|!
[1 "G"dBG "Am"ecA|"D"fef "G"gfg|"C"ege "G"dBG|"D"AGF "G"G2:|!
[2 "G"dBG "C"cGE|"G"DED GFG|BAB dcB|"D"AGF "G"G2|]!


